teeny/outline/garage.svg

<svg width="15" height="15" viewBox="0 0 15 15" fill="none" xmlns="http://www.w3.org/2000/svg">
<path d="M0.5 5.5L0.209381 5.09313C0.0779828 5.18699 0 5.33852 0 5.5H0.5ZM7.5 0.5L7.79062 0.0931333C7.61677 -0.0310444 7.38323 -0.0310444 7.20938 0.0931333L7.5 0.5ZM14.5 5.5H15C15 5.33852 14.922 5.18699 14.7906 5.09313L14.5 5.5ZM2.5 7.5V7H2V7.5H2.5ZM12.5 7.5H13V7H12.5V7.5ZM1 15V5.5H0V15H1ZM0.790619 5.90687L7.79062 0.906867L7.20938 0.0931333L0.209381 5.09313L0.790619 5.90687ZM7.20938 0.906867L14.2094 5.90687L14.7906 5.09313L7.79062 0.0931333L7.20938 0.906867ZM14 5.5V15H15V5.5H14ZM3 15V7.5H2V15H3ZM2.5 8H12.5V7H2.5V8ZM12 7.5V15H13V7.5H12ZM2.5 11H12.5V10H2.5V11ZM6 13H9V12H6V13Z" fill="black"/>
</svg>

<svg viewBox="0 0 15 15" xmlns="http://www.w3.org/2000/svg"><path d="M.5 5.5l-.3-.41c-.14.09-.21.24-.21.4h.5Zm7-5l.29-.41C7.61-.04 7.38-.04 7.2.08l.29.4Zm7 5h.5c0-.17-.08-.32-.21-.41l-.3.4Zm-12 2V7H2v.5h.5Zm10 0h.5V7h-.5v.5ZM1 15V5.5H0V15h1ZM.79 5.9l7-5.01L7.2.07l-7 4.99 .58.81ZM7.2.89l7 5 .58-.82 -7-5 -.59.81Zm6.79 4.59v9.5h1v-9.5h-1Zm-11 9.5v-7.5h-1v7.5h1Zm-.5-7h10v-1h-10v1Zm9.5-.5v7.5h1v-7.5h-1Zm-9.5 3.5h10v-1h-10v1Zm3.5 2h3v-1h-3v1Z"/></svg>
